X: 81
T:Christmas Eve
M:C|
L:1/8
C:Tommy Coen ()
R:Reel
K:G
GE[|:D3E G2GA|B2dB ABGA|BAGE DB,DE|GABG ABGE|!
D2DE GFGA|B2dB ABGA|BA~A2 GEBG|1ABGE G2GE:|2ABGE G2GA|!
|:BABd edeg|a2ge g2eg|a2ge gage|dedB ABGA|!
BABd edeg|a2ge g2eg|a2ge dedB|1ABGE G2GA:|2ABGE G2dc|!
|:BG~G2 BABd|eg~g2 egdc|BG~G2 BGAG|EAAG A2GA|!
BG~G2 DGBd|eg~g2 egga|bgaf gedB|1ABGE G2dc:|2ABGE G2GE|]!
